X: 33
T: Missa Cum iocunditate / Credo
N: Derived from Rue1007c-Missa_Cum_iocunditate-Credo.krn
C: Pierre de la Rue
%%abc-version 2.0
%%abcx-abcm2ps-target-version 5.9.1 (29 Sep 2008)
%%abc-creator hum2abc beta
%%abcx-conversion-date 2019/02/17 08:01:10
%%abc-edited-by Jesse Rodin
%%abc-edited-by Jesse Rodin; Victoria Chang 2011/04/03
%%abcx-initial-encoding-date 2011/04/03/
%%humdrum-veritas 3706650505
%%humdrum-veritas-data 3981103570
%%linebreak <none>
%%barnumbers 0
L: 1/4
M: 3/1
Q: 1/2=120
V: 1 clef=treble
V: 2 clef=treble
V: 3 clef=treble-8
V: 4 clef=treble-8
V: 5 clef=bass
K: C
[V:1] A4A2A2A2F2- | 
[V:2] z12 | 
[V:3] d12- | 
[V:4] A3AA2A2F3D | 
[V:5] D,8D,2D,2 | 
[V:1] F2D2D4z2d2 | 
[V:2] z2d2d2d4d2 | 
[V:3] d12 | 
[V:4] D4z2d2d2d2- | 
[V:5] D,2B,,4G,,2G,,4 | 
[V:1] d2d4d2d2B2- | 
[V:2] d2B4G2G4 | 
[V:3] B4d8 | 
[V:4] d2d2d2B4G2 | 
[V:5] z2G,2G,2G,4G,2 | 
[V:1] B2G2G4z2A2 | 
[V:2] z2G2G2E3CC2 | 
[V:3] e12 | 
[V:4] G8z4 | 
[V:5] G,2E,4C,2C,4 | 
[V:1] A2F3DD4d2- | 
[V:2] F2F2D4G4- | 
[V:3] d12 | 
[V:4] z4d2d2B3G | 
[V:5] z2D,2D,2B,,3G,,G,,2- | 
[V:1] d2d2G4z2G2- | 
[V:2] G2FED4E4 | 
[V:3] z12 | 
[V:4] G2B4B2c4- | 
[V:5] G,,2G,4G,2C,4- | 
[V:1] GA/B/c2B2G2A2G2- | 
[V:2] z2E2G3A/B/c2B2 | 
[V:3] z12 | 
[V:4] c4z4z2d2 | 
[V:5] C,4z2G,2F,2G,2- | 
[V:1] GA/B/c2B2G2A2G2- | 
[V:2] G2A2G3A/B/c2B2 | 
[V:3] z12 | 
[V:4] e2f2d2e2A2B2- | 
[V:5] G,2F,2G,4F,2G,2- | 
[V:1] GFD4d3cA2 | 
[V:2] G2A3GG4^F2 | 
[V:3] d12- | 
[V:4] B2A2B2G2A4 | 
[V:5] G,2F,2G,4D,4 | 
[V:1] B2G4FED4 | 
[V:2] G4z4z4 | 
[V:3] d4B4d4 | 
[V:4] G8z2B2 | 
[V:5] G,,12 | 
[V:1] C8z4 | 
[V:2] G4G2G4G2 | 
[V:3] e12- | 
[V:4] c3BG2c4B2 | 
[V:5] z2C,4C,2E,2E,2 | 
[V:1] z12 | 
[V:2] A2B2c2G2A2B2 | 
[V:3] e8d4 | 
[V:4] c2B2A2c4B2 | 
[V:5] A,,2E,2A,,2E,2F,2G,2 | 
[V:1] G4G2G4B2 | 
[V:2] c4B6AG | 
[V:3] z4d4B4 | 
[V:4] e4d4z2G2 | 
[V:5] C,4G,8 | 
[V:1] A2d3cd2B2c2- | 
[V:2] F8z4 | 
[V:3] d8e4- | 
[V:4] A2B2A4G2c2- | 
[V:5] D,8z2A,2- | 
[V:1] cBc2A2B3AB2 | 
[V:2] z12 | 
[V:3] e4d8 | 
[V:4] c2A2d2G2d2G2 | 
[V:5] A,G,A,2F,2G,3F,G,2 | 
[V:1] G2A3GG4^F2 | 
[V:2] z4z4A4 | 
[V:3] z12 | 
[V:4] c4cBAGA4 | 
[V:5] E,2F,3G,E,2D,4 | 
[V:1] G8z4 | 
[V:2] B2d4B4d2- | 
[V:3] d8B4 | 
[V:4] G8z4 | 
[V:5] G,,4z2G,2G,2G,2 | 
[V:1] z2A2c2c2G3A | 
[V:2] d2A2A2c2c2G2- | 
[V:3] d4e8 | 
[V:4] z12 | 
[V:5] D,2F,2C,2A,2C2C2 | 
[V:1] Bcd4cBc4 | 
[V:2] GAB3AG4^F2 | 
[V:3] d4d4z4 | 
[V:4] z12 | 
[V:5] G,2G,2B,4A,4 | 
[V:1] B8z4 | 
[V:2] G12 | 
[V:3] z4G6E2 | 
[V:4] d6B2d2e2- | 
[V:5] G,8z4 | 
[V:1] z12 | 
[V:2] z12 | 
[V:3] G4A2G4^F2 | 
[V:4] e2d4cBA4 | 
[V:5] z4z4z2D,2 | 
[V:1] z12 | 
[V:2] z12 | 
[V:3] G8z4 | 
[V:4] G4z2A2B2d2- | 
[V:5] E,2G,4F,2G,2F,E, | 
[V:1] z12 | 
[V:2] z2E2F2A4G2 | 
[V:3] z12 | 
[V:4] d2c2d2cBA2B2 | 
[V:5] D,2E,2D,2F,4E,2 | 
[V:1] z4z2G2A2c2- | 
[V:2] A2GFE2G2F2G2- | 
[V:3] z12 | 
[V:4] A2c3BG2d2e2 | 
[V:5] F,2E,D,C,2E,2D,2C,2 | 
[V:1] c2B2c2BAG2B2 | 
[V:2] G2G2E3FG4 | 
[V:3] G12 | 
[V:4] d4c4z4 | 
[V:5] G,,4C,6G,,2 | 
[V:1] A2G2c4c4 | 
[V:2] C4z4z4 | 
[V:3] E12 | 
[V:4] z4z2e2e4 | 
[V:5] A,,2C,3B,,A,,G,,A,,4 | 
[V:1] B8z4 | 
[V:2] G3GG2G2F4 | 
[V:3] G8A4 | 
[V:4] e2d4B2c4 | 
[V:5] G,,8z4 | 
[V:1] z4z4B3B | 
[V:2] G8z2G2 | 
[V:3] G4G4E4 | 
[V:4] B4z2e2e2e2 | 
[V:5] z12 | 
[V:1] B2B2B2B2A4 | 
[V:2] G2G2G2G2E2F2 | 
[V:3] G8A4 | 
[V:4] e2d4B2c4 | 
[V:5] z12 | 
[V:1] B4z2B4B2 | 
[V:2] G12 | 
[V:3] G8z4 | 
[V:4] d8d4 | 
[V:5] z4G,8 | 
[V:1] c6BAG2c2 | 
[V:2] z12 | 
[V:3] z2G4G2G2G2- | 
[V:4] e4e2e4dc | 
[V:5] C,4C,2C,4B,,A,, | 
[V:1] B2A3GG4^F2 | 
[V:2] z12 | 
[V:3] G2E2G4A4 | 
[V:4] d2e2d4d4 | 
[V:5] G,,2C,2B,,2G,,2D,4 | 
[V:1] G8z4 | 
[V:2] D4E2G3FD2- | 
[V:3] G4z2d2d2B2 | 
[V:4] B8z4 | 
[V:5] G,,8z2G,2- | 
[V:1] z12 | 
[V:2] D2G4F2G4 | 
[V:3] d2e4d3^c^c2 | 
[V:4] z12 | 
[V:5] G,F,E,D,C,2D,2E,4 | 
[V:1] z4z2A2A2F2 | 
[V:2] F12 | 
[V:3] d12 | 
[V:4] A4B2d3cA2- | 
[V:5] D,12 | 
[V:1] A2B4A3^GG2 | 
[V:2] z12 | 
[V:3] z12 | 
[V:4] A2d3cBAB4 | 
[V:5] z12 | 
[V:1] A2A2B2A2B2G2 | 
[V:2] F4G2F2G2D2- | 
[V:3] d12- | 
[V:4] A2A2G2A2G2B2- | 
[V:5] D,4G,,2D,2G,,2G,2- | 
[V:1] z2F2G2F2G2D2- | 
[V:2] D2A2B2A2B2A2 | 
[V:3] d12 | 
[V:4] B2A2G2A2G2A2 | 
[V:5] G,2D,2G,2D,2G,,2D,2- | 
[V:1] D2d3cBAG2G2 | 
[V:2] z2D2D2G2G2E2- | 
[V:3] B4d4e4- | 
[V:4] d3cBAG2G2c2 | 
[V:5] D,C,B,,A,,G,,2G,,2C,2C,2 | 
[V:1] c2c2A3B/c/d3c | 
[V:2] EF/G/A3GFED2d2- | 
[V:3] e4d8 | 
[V:4] c2A3B/c/d3cBA | 
[V:5] A,,3B,,/C,/D,3C,B,,A,,G,,2- | 
[V:1] BAG4G2A4 | 
[V:2] dcBAB2G4^F2 | 
[V:3] d12- | 
[V:4] G2d3cB2A4 | 
[V:5] G,,2G,4G,,2D,4 | 
[V:1] B12 ||  
[V:2] G12 ||  
[V:3] d12 ||  
[V:4] G12 ||  
[V:5] G,,12 ||  
[V:1] [M:2/1]G8 | 
[V:2] [M:2/1]E8 | 
[V:3] [M:2/1]G8- | 
[V:4] [M:2/1]G4c4- | 
[V:5] [M:2/1]C,8 | 
[V:1] G6A2 | 
[V:2] E6F2 | 
[V:3] G8- | 
[V:4] c4c4 | 
[V:5] C,4C,4 | 
[V:1] B4B4 | 
[V:2] G4G4 | 
[V:3] G8 | 
[V:4] B4B4 | 
[V:5] G,,4G,,4 | 
[V:1] c8 | 
[V:2] C8 | 
[V:3] E8- | 
[V:4] A8 | 
[V:5] A,,8 | 
[V:1] z4G4 | 
[V:2] z4E4 | 
[V:3] E8 | 
[V:4] z4G4 | 
[V:5] z4C,4 | 
[V:1] G6A2 | 
[V:2] E6F2 | 
[V:3] G8- | 
[V:4] c4c4 | 
[V:5] C,4C,4 | 
[V:1] B4B4 | 
[V:2] G4G4 | 
[V:3] G8 | 
[V:4] d8 | 
[V:5] G,,4B,,4 | 
[V:1] c8 | 
[V:2] C2F2E2A2- | 
[V:3] A8 | 
[V:4] c4c4 | 
[V:5] A,,8 | 
[V:1] z4A4 | 
[V:2] A2G4^F2 | 
[V:3] A8 | 
[V:4] z4d4 | 
[V:5] D,8 | 
[V:1] B4d4 | 
[V:2] G8- | 
[V:3] G8- | 
[V:4] dcBAG4 | 
[V:5] G,,8 | 
[V:1] dcBAG4 | 
[V:2] G8 | 
[V:3] G8 | 
[V:4] z4d4 | 
[V:5] G,4G,F,E,D, | 
[V:1] z2c4B2- | 
[V:2] z8 | 
[V:3] z8 | 
[V:4] e6dc | 
[V:5] C,3D,E,F,G,2- | 
[V:1] B2AGA2G2- | 
[V:2] z2c4B2- | 
[V:3] z8 | 
[V:4] B2c4e2 | 
[V:5] G,2F,E,F,2G,2- | 
[V:1] G2c4B2- | 
[V:2] B2AGA2G2- | 
[V:3] z8 | 
[V:4] d2c4e2 | 
[V:5] G,2F,E,F,2G,2- | 
[V:1] B2AGA2G2- | 
[V:2] G2c4B2- | 
[V:3] z8 | 
[V:4] d2f3edc | 
[V:5] G,2F,E,F,2G,2- | 
[V:1] G2c4c2 | 
[V:2] B2AGA2G2- | 
[V:3] G4E2E2 | 
[V:4] B2e4e2 | 
[V:5] G,F,E,D,C,4 | 
[V:1] B2G4^F2 | 
[V:2] G2FED4- | 
[V:3] G4A4 | 
[V:4] d6B2 | 
[V:5] G,,4D,4 | 
[V:1] G4G4 | 
[V:2] D4D4 | 
[V:3] G4G4 | 
[V:4] B8 | 
[V:5] G,,8 | 
[V:1] z4G4- | 
[V:2] z4E4- | 
[V:3] z4G4- | 
[V:4] z4c4- | 
[V:5] z4C,4- | 
[V:1] G4c4- | 
[V:2] E4G4- | 
[V:3] G4E4- | 
[V:4] c4e4- | 
[V:5] C,4C,4- | 
[V:1] c4B4 | 
[V:2] G4G4- | 
[V:3] E4G4- | 
[V:4] e4d4- | 
[V:5] C,4G,,4- | 
[V:1] d8- | 
[V:2] G4^F4- | 
[V:3] G4A4- | 
[V:4] d4d4- | 
[V:5] G,,4D,4- | 
[V:1] d4B4 | 
[V:2] F4G4 | 
[V:3] A4G4 | 
[V:4] d4d4 | 
[V:5] D,4G,,4 | 
[V:1] B8 ||  
[V:2] G8 ||  
[V:3] G8 ||  
[V:4] d8 ||  
[V:5] G,,8 ||  
[V:1] [M:2/1]z8 | 
[V:2] [M:2/1]z8 | 
[V:3] [M:2/1]G8 | 
[V:4] [M:2/1]d6B2 | 
[V:5] [M:2/1]z8 | 
[V:1] G6E2 | 
[V:2] z8 | 
[V:3] E4G4 | 
[V:4] c4B4 | 
[V:5] z8 | 
[V:1] F4E4 | 
[V:2] z8 | 
[V:3] A8 | 
[V:4] z2c2c2A2 | 
[V:5] z8 | 
[V:1] z2B2B2G2 | 
[V:2] z8 | 
[V:3] G2d2B2B2 | 
[V:4] B2B2G4 | 
[V:5] z2G,2G,2E,2 | 
[V:1] A2F2E4 | 
[V:2] z4z2G2 | 
[V:3] d4e4- | 
[V:4] z4c4 | 
[V:5] F,2D,2C,4- | 
[V:1] z8 | 
[V:2] G2E2F2D2 | 
[V:3] e4d4 | 
[V:4] c2c2B2B2 | 
[V:5] C,4z2G,2 | 
[V:1] z8 | 
[V:2] C4z2G2 | 
[V:3] z8 | 
[V:4] c8 | 
[V:5] A,2F,4E,2 | 
[V:1] z4z2G2 | 
[V:2] A2F4E2 | 
[V:3] z8 | 
[V:4] A4z4 | 
[V:5] F,2D,4C,2 | 
[V:1] A2F4E2 | 
[V:2] F2D4G2 | 
[V:3] d4d2B2 | 
[V:4] z8 | 
[V:5] F,4G,4 | 
[V:1] F2D4^C2 | 
[V:2] F2A3GE2 | 
[V:3] d2d2e4 | 
[V:4] z8 | 
[V:5] D,4A,4 | 
[V:1] D8 | 
[V:2] F4D4 | 
[V:3] d4z2d2 | 
[V:4] z2A2B2B2- | 
[V:5] D,8 | 
[V:1] z2A2B2B2 | 
[V:2] z8 | 
[V:3] d4B4 | 
[V:4] BAd2G2d2- | 
[V:5] z8 | 
[V:1] A2d4c2 | 
[V:2] z8 | 
[V:3] d4e4 | 
[V:4] d2cBA4 | 
[V:5] z8 | 
[V:1] B2A4GF | 
[V:2] z8 | 
[V:3] d4d4 | 
[V:4] z8 | 
[V:5] D,8 | 
[V:1] E8 | 
[V:2] z4z2E2 | 
[V:3] z8 | 
[V:4] z8 | 
[V:5] A,2A,2A,4 | 
[V:1] z8 | 
[V:2] A2A2AGFE | 
[V:3] d8 | 
[V:4] z2A2d2d2 | 
[V:5] D,4z2D,2 | 
[V:1] z8 | 
[V:2] D4z2D2 | 
[V:3] B4d4 | 
[V:4] dcBAG4 | 
[V:5] G,2G,2G,F,E,D, | 
[V:1] z2E2G2G2 | 
[V:2] G2G2GFED | 
[V:3] e8- | 
[V:4] z8 | 
[V:5] C,8- | 
[V:1] GFEDC2A2 | 
[V:2] C8 | 
[V:3] e8- | 
[V:4] z4z2c2 | 
[V:5] C,8- | 
[V:1] c2c2cBAG | 
[V:2] z8 | 
[V:3] e8 | 
[V:4] e2e2edcB | 
[V:5] C,8 | 
[V:1] F2G4^F2 | 
[V:2] z8 | 
[V:3] d4d4 | 
[V:4] A2G2A4 | 
[V:5] D,8 | 
[V:1] G8 | 
[V:2] z4G4- | 
[V:3] z8 | 
[V:4] G8 | 
[V:5] z4G,4- | 
[V:1] z4B4- | 
[V:2] G4G4 | 
[V:3] d6d2 | 
[V:4] B6B2 | 
[V:5] G,4G,4 | 
[V:1] B2B2B4 | 
[V:2] G4G4- | 
[V:3] d4d4 | 
[V:4] B4B4 | 
[V:5] G,4G,4 | 
[V:1] B4B4 | 
[V:2] G2FED4 | 
[V:3] B4B4 | 
[V:4] d4d4 | 
[V:5] G,8 | 
[V:1] G4A4- | 
[V:2] E4F4- | 
[V:3] c8 | 
[V:4] c4F4 | 
[V:5] C,4F,4- | 
[V:1] A4A4 | 
[V:2] F4F4 | 
[V:3] c4c4- | 
[V:4] A6A2 | 
[V:5] F,4F,4 | 
[V:1] A6A2 | 
[V:2] F6F2 | 
[V:3] c2c2c2c2 | 
[V:4] A2A2A4 | 
[V:5] F,6F,2 | 
[V:1] A2A2B4 | 
[V:2] F2F2D4 | 
[V:3] d8 | 
[V:4] F4G4 | 
[V:5] D,2D,2G,4 | 
[V:1] A2G4^F2 | 
[V:2] E4D4 | 
[V:3] c3BA4 | 
[V:4] z8 | 
[V:5] C,4D,4 | 
[V:1] G4z4 | 
[V:2] z2D2G3A | 
[V:3] G8 | 
[V:4] z2G2E3F | 
[V:5] z8 | 
[V:1] z2B2B3c | 
[V:2] B2G2G3F | 
[V:3] z8 | 
[V:4] G2G2G3A | 
[V:5] z8 | 
[V:1] d2d2c2B2 | 
[V:2] D4z4 | 
[V:3] z8 | 
[V:4] _B2_B2A2G2 | 
[V:5] z8 | 
[V:1] A4z4 | 
[V:2] z2A2G2F2 | 
[V:3] z8 | 
[V:4] F4z4 | 
[V:5] z2F,2E,2D,2 | 
[V:1] z2c2B2A2 | 
[V:2] E4z4 | 
[V:3] z8 | 
[V:4] z2A2G2F2 | 
[V:5] C,4z4 | 
[V:1] G2A2A2B2 | 
[V:2] z2F2E2D2 | 
[V:3] z8 | 
[V:4] E2F2F2G2 | 
[V:5] z2D,2C,2B,,2 | 
[V:1] c4z2c2 | 
[V:2] C4F4 | 
[V:3] z8 | 
[V:4] A2c2c2c2 | 
[V:5] A,,4F,,4 | 
[V:1] c2c2G2A2 | 
[V:2] E8 | 
[V:3] c8 | 
[V:4] G2A2E2A2- | 
[V:5] C,8 | 
[V:1] E2A4A2 | 
[V:2] z2F4F2 | 
[V:3] c4c4 | 
[V:4] A2F4F2 | 
[V:5] z8 | 
[V:1] G2A4c2 | 
[V:2] E2F4C2 | 
[V:3] c8 | 
[V:4] C2F4F2 | 
[V:5] z4z2A,2 | 
[V:1] B2A4^G2 | 
[V:2] D2D2E4 | 
[V:3] z8 | 
[V:4] G2A2B4 | 
[V:5] G,2F,2E,4 | 
[V:1] A8 | 
[V:2] E4z4 | 
[V:3] c8 | 
[V:4] A8- | 
[V:5] A,,4z2F,2- | 
[V:1] z8 | 
[V:2] z2A4A2 | 
[V:3] c4c4 | 
[V:4] A8 | 
[V:5] F,2F,2F,2F,2 | 
[V:1] z8 | 
[V:2] G2E2F2A2- | 
[V:3] c4A4 | 
[V:4] z8 | 
[V:5] C,4z2F,2- | 
[V:1] z8 | 
[V:2] A2G2E2F2 | 
[V:3] z2c4B2- | 
[V:4] z8 | 
[V:5] F,2E,4D,C, | 
[V:1] z8 | 
[V:2] D8 | 
[V:3] B2A4^G2 | 
[V:4] z8 | 
[V:5] D,C,B,,A,,B,,4 | 
[V:1] z8 | 
[V:2] z8 | 
[V:3] A8 | 
[V:4] z2F4E2 | 
[V:5] A,,2D,4C,2 | 
[V:1] z8 | 
[V:2] z8 | 
[V:3] B8 | 
[V:4] F2D4F2- | 
[V:5] D,2G,,4D,2- | 
[V:1] z8 | 
[V:2] z8 | 
[V:3] A4G4- | 
[V:4] F2E3DD2 | 
[V:5] D,2C,4B,,2 | 
[V:1] z4A4 | 
[V:2] z8 | 
[V:3] G4^F4 | 
[V:4] EDCB,C4 | 
[V:5] C,B,,A,,G,,A,,4 | 
[V:1] B2d3cBA | 
[V:2] z4D4 | 
[V:3] G8 | 
[V:4] D8 | 
[V:5] G,,8 | 
[V:1] G3AB2c2- | 
[V:2] E2G3FED | 
[V:3] z8 | 
[V:4] z8 | 
[V:5] z8 | 
[V:1] cBAGFEA2- | 
[V:2] C3DE2F2- | 
[V:3] z8 | 
[V:4] z2c3BAG | 
[V:5] z8 | 
[V:1] A2G4^F2 | 
[V:2] FED4C2 | 
[V:3] z8 | 
[V:4] F2G2A4 | 
[V:5] z8 | 
[V:1] G8- | 
[V:2] D8 | 
[V:3] z2d4B2 | 
[V:4] G2B4G2 | 
[V:5] G,8 | 
[V:1] G8 | 
[V:2] z8 | 
[V:3] d4e4 | 
[V:4] B4c4 | 
[V:5] G,4C,4 | 
[V:1] z8 | 
[V:2] z2G2G2G2 | 
[V:3] d2B2d4 | 
[V:4] B2G2B4 | 
[V:5] G,4z2G,2 | 
[V:1] z8 | 
[V:2] G8 | 
[V:3] e4d4 | 
[V:4] c4B4 | 
[V:5] C,2C,2G,4 | 
[V:1] z2B2B2G2 | 
[V:2] z2G2G2G2- | 
[V:3] z2d2d2B2 | 
[V:4] z8 | 
[V:5] z2G,4G,2 | 
[V:1] B4c4 | 
[V:2] G2G2G4 | 
[V:3] d4e4 | 
[V:4] z8 | 
[V:5] G,2G,2C,4 | 
[V:1] B2B2B2G2 | 
[V:2] G2G2G2G2 | 
[V:3] d2d2d2B2 | 
[V:4] z8 | 
[V:5] G,2G,2G,2G,2 | 
[V:1] B2B2c4 | 
[V:2] G2G2G4 | 
[V:3] d2d2e4 | 
[V:4] z8 | 
[V:5] G,2G,2C4 | 
[V:1] B4d4- | 
[V:2] G4B4- | 
[V:3] d8- | 
[V:4] B6B2 | 
[V:5] G,4G,4- | 
[V:1] d2c2B2B2 | 
[V:2] B2A2G2G2 | 
[V:3] d8 | 
[V:4] B4B4 | 
[V:5] G,2G,2G,2G,2 | 
[V:1] A4A2B2- | 
[V:2] F4F2G2 | 
[V:3] z8 | 
[V:4] d4d4 | 
[V:5] D,2D,4G,2- | 
[V:1] B2A4G2 | 
[V:2] E2F2D3E | 
[V:3] z8 | 
[V:4] c4B4 | 
[V:5] G,2F,2G,4 | 
[V:1] A8 | 
[V:2] FGA4GF | 
[V:3] z8 | 
[V:4] A8 | 
[V:5] D,4z2D,2 | 
[V:1] z2A4GF | 
[V:2] E2F2D4 | 
[V:3] z8 | 
[V:4] A6A2 | 
[V:5] C,2D,3E,F,G, | 
[V:1] E2F2D4 | 
[V:2] C2D4F2 | 
[V:3] z8 | 
[V:4] A4A4 | 
[V:5] A,2D,4D,2 | 
[V:1] C2D4F2 | 
[V:2] E2F3ED2 | 
[V:3] z8 | 
[V:4] A4A4 | 
[V:5] A,,2D,4D,2 | 
[V:1] E2F3ED2 | 
[V:2] C2D3EF2- | 
[V:3] z8 | 
[V:4] A4A4 | 
[V:5] A,,2D,4C,B,, | 
[V:1] C2D4^C2 | 
[V:2] F2EDE4 | 
[V:3] z8 | 
[V:4] A8 | 
[V:5] A,,8 | 
[V:1] D2D2A2A2 | 
[V:2] D2D2F2F2 | 
[V:3] d8 | 
[V:4] z2A2A2A2 | 
[V:5] z2D,2D,2D,2 | 
[V:1] B2B2A2B2- | 
[V:2] G2G2A2D2 | 
[V:3] d6B2 | 
[V:4] G2G2F2d2 | 
[V:5] G,,2G,,2D,4 | 
[V:1] BAd4^c2 | 
[V:2] F3GA4 | 
[V:3] d4e4 | 
[V:4] d2d2A4 | 
[V:5] z8 | 
[V:1] [M:3/1]d4A4B4 | 
[V:2] [M:3/1]z12 | 
[V:3] [M:3/1]d12 | 
[V:4] [M:3/1]z12 | 
[V:5] [M:3/1]D,4F,4G,4 | 
[V:1] c6B2A2G2 | 
[V:2] z12 | 
[V:3] z12 | 
[V:4] c4c4c4 | 
[V:5] A,6G,2F,2E,2 | 
[V:1] F8z4 | 
[V:2] A4A4A4 | 
[V:3] z12 | 
[V:4] d4d6c2 | 
[V:5] D,6C,2B,,2A,,2 | 
[V:1] G8F4 | 
[V:2] B4B4A4 | 
[V:3] d8d4 | 
[V:4] B2A2G4D4 | 
[V:5] G,,4G,,4D,4 | 
[V:1] G4A8 | 
[V:2] G8^F4 | 
[V:3] d4d8 | 
[V:4] B4A8 | 
[V:5] G,,4D,8 | 
[V:1] G8z4 | 
[V:2] G8z4 | 
[V:3] B8z4 | 
[V:4] d8z4 | 
[V:5] G,,8z4 | 
[V:1] G4G4G4 | 
[V:2] E4E4E4 | 
[V:3] c4c4c4 | 
[V:4] G4G4G4 | 
[V:5] C,4C,4C,4 | 
[V:1] A4c8 | 
[V:2] E4F8 | 
[V:3] c4c8 | 
[V:4] E4A8 | 
[V:5] C,4A,,8 | 
[V:1] B4A6G2 | 
[V:2] G4D4F4- | 
[V:3] d8c4 | 
[V:4] D4F6E2 | 
[V:5] G,,4F,,8 | 
[V:1] G8^F4 | 
[V:2] F2E2D2C2D4 | 
[V:3] B4A8 | 
[V:4] D8A4 | 
[V:5] G,,4D,8 | 
[V:1] G8z4 | 
[V:2] D8z4 | 
[V:3] G8z4 | 
[V:4] _B6A2G4 | 
[V:5] G,,6A,,2B,,2C,2 | 
[V:1] A4A4G4 | 
[V:2] F4F4E4 | 
[V:3] c8c4- | 
[V:4] F8z4 | 
[V:5] F,,8z4 | 
[V:1] A4c6B2 | 
[V:2] A,4A4G4 | 
[V:3] c4c8 | 
[V:4] z12 | 
[V:5] F,8E,4 | 
[V:1] A4A4G4 | 
[V:2] F4c8 | 
[V:3] c8z4 | 
[V:4] F4F4E4 | 
[V:5] F,4C,8 | 
[V:1] A12 | 
[V:2] A4c6B2 | 
[V:3] c4c4c4 | 
[V:4] F4A6G2 | 
[V:5] F,,4F,,6G,,2 | 
[V:1] z12 | 
[V:2] A4G8 | 
[V:3] c4c8 | 
[V:4] F4F4E4 | 
[V:5] A,,2B,,2C,8 | 
[V:1] A8G4 | 
[V:2] F4F4E4 | 
[V:3] c12 | 
[V:4] F8z4 | 
[V:5] F,,8z4 | 
[V:1] A4c6B2 | 
[V:2] F4A6G2 | 
[V:3] c8c4- | 
[V:4] A6_B2c4 | 
[V:5] F,8E,4 | 
[V:1] A4G8 | 
[V:2] F8E4 | 
[V:3] c4c8 | 
[V:4] F4G8 | 
[V:5] F,4C,8 | 
[V:1] F8z4 | 
[V:2] F8D4 | 
[V:3] A8A4 | 
[V:4] d8z4 | 
[V:5] D,6C,2B,,2A,,2 | 
[V:1] G8F4 | 
[V:2] D12 | 
[V:3] B8A4 | 
[V:4] D6E2F4 | 
[V:5] G,,4G,,4D,4 | 
[V:1] G4A4c4 | 
[V:2] z12 | 
[V:3] G8^F4 | 
[V:4] D8C4 | 
[V:5] B,,4A,,8 | 
[V:1] B6G2A4 | 
[V:2] z12 | 
[V:3] G8z4 | 
[V:4] D12 | 
[V:5] G,,8F,,4 | 
[V:1] G6E2^F4 | 
[V:2] z12 | 
[V:3] B6G2A4 | 
[V:4] z12 | 
[V:5] G,,4D,8 | 
[V:1] G8z4 | 
[V:2] B6G2A4 | 
[V:3] G6E2^F4 | 
[V:4] z12 | 
[V:5] G,,8z4 | 
[V:1] z12 | 
[V:2] G8^F4 | 
[V:3] G8z4 | 
[V:4] _B6G2A4 | 
[V:5] z12 | 
[V:1] d6B2c4 | 
[V:2] G8z4 | 
[V:3] z12 | 
[V:4] G8^F4 | 
[V:5] B,,6G,,2A,,4 | 
[V:1] B6G2A4 | 
[V:2] z12 | 
[V:3] d6B2c4 | 
[V:4] G8z4 | 
[V:5] G,,8^F,,4 | 
[V:1] G6ABc4 | 
[V:2] G6E2F4 | 
[V:3] B6G2A4 | 
[V:4] z12 | 
[V:5] G,,8z4 | 
[V:1] B4G2A4c2 | 
[V:2] G4G2C4C2 | 
[V:3] G6E2F4 | 
[V:4] D6E2C4 | 
[V:5] G,,3A,,B,,2C,2A,,4 | 
[V:1] B4B2A4G2 | 
[V:2] G4D4E4 | 
[V:3] G4F4G4- | 
[V:4] D4F4E4- | 
[V:5] G,,4D,4C,4 | 
[V:1] G8^F4 | 
[V:2] C4D8 | 
[V:3] G4A8 | 
[V:4] E2C2F6D2 | 
[V:5] E,4D,8 | 
[V:1] G12- | 
[V:2] B,6CDE4 | 
[V:3] G12- | 
[V:4] E4D4C4 | 
[V:5] G,,8C,4 | 
[V:1] G12- | 
[V:2] D8C4 | 
[V:3] G12- | 
[V:4] D4E8 | 
[V:5] B,,4C,8 | 
[V:1] G12- | 
[V:2] D12 | 
[V:3] G12- | 
[V:4] D12- | 
[V:5] G,,12- | 
[V:1] G12 |]  
[V:2] D12 |]  
[V:3] G12 |]  
[V:4] D12 |]  
[V:5] G,,12 |]  



